src/assets/img/providers-white/elbet.svg

<svg width="114" height="22" viewBox="0 0 114 22" fill="none" xmlns="http://www.w3.org/2000/svg">
<g clip-path="url(#clip0_4132_7241)">
<path fill-rule="evenodd" clip-rule="evenodd" d="M62.1193 0.322812L58.0123 21.6183H63.2601L67.4256 0.0419922L62.1193 0.322812ZM42.2805 14.7499C42.2805 19.3308 44.9834 21.9635 49.693 21.9635C50.8105 21.9635 53.6596 21.8348 55.9998 20.6413L56.0934 20.5945L55.719 16.704L55.52 16.8034C54.075 17.5055 52.5597 17.8506 50.8924 17.8506C49.4824 17.8506 48.4118 17.4177 47.7975 16.6104C47.5225 16.2184 47.3529 15.6041 47.3236 15.1478L47.3413 15.1481C47.6101 15.1539 47.8733 15.1595 48.131 15.1595C54.8882 15.1595 58.1703 13.2522 58.1703 9.33829C58.1703 6.25512 55.7716 4.18407 52.197 4.18407C49.3537 4.18407 46.7678 5.37171 44.9249 7.53051C43.24 9.4904 42.2805 12.1231 42.2805 14.7499ZM51.9864 10.7892C51.1322 11.0934 49.8159 11.2397 47.973 11.2397H47.8384C48.2538 9.64251 49.5409 8.09215 51.5769 8.09215C52.6007 8.09215 53.2384 8.58359 53.2384 9.37339C53.2384 10.0345 52.8405 10.4791 51.9864 10.7892ZM92.8691 21.9635C88.1537 21.9635 85.4508 19.3308 85.4508 14.7499C85.4508 12.1231 86.4161 9.4904 88.0952 7.53051C89.9439 5.37171 92.524 4.18407 95.3673 4.18407C98.9419 4.18407 101.346 6.25512 101.346 9.33829C101.346 13.2522 98.0584 15.1595 91.3071 15.1595C91.0438 15.1595 90.7689 15.1536 90.494 15.1478L90.4939 15.1478C90.529 15.6041 90.6928 16.2184 90.9736 16.6104C91.5879 17.4177 92.6585 17.8506 94.0626 17.8506C95.73 17.8506 97.2452 17.5055 98.6903 16.8034L98.8892 16.704L99.2636 20.5945L99.17 20.6413C96.8299 21.8348 93.9807 21.9635 92.8691 21.9635ZM91.1433 11.2397C92.992 11.2397 94.3025 11.0934 95.1566 10.7892C96.0108 10.4791 96.4086 10.0345 96.4086 9.37339C96.4086 8.58359 95.7768 8.09215 94.753 8.09215C92.717 8.09215 91.4241 9.64251 91.0087 11.2397H91.1433ZM66.8815 17.1486C66.8815 20.2727 69.0579 21.9927 73.0011 21.9927C77.4123 21.9927 80.0567 19.8983 81.49 18.1432C83.2452 16.0019 84.2514 13.0884 84.2514 10.1632C84.2514 7.18535 82.6367 4.18409 79.027 4.18409C77.1081 4.18409 75.312 4.93879 74.0366 6.26683L75.1833 0.0419922L69.8945 0.322812L67.2618 14.0654C67.0746 14.9781 66.8815 16.0546 66.8815 17.1486ZM72.7729 13.0709C73.317 10.3563 74.9434 8.46659 76.7337 8.46659C78.009 8.46659 78.7696 9.48456 78.7696 11.187C78.7696 14.2527 76.6517 17.9501 74.0249 17.9501C72.9601 17.9501 72.3283 17.33 72.299 16.2476C72.2698 15.727 72.34 15.2765 72.4102 14.8435C72.417 14.789 72.4247 14.7345 72.4323 14.6811L72.4323 14.6809L72.4324 14.6803C72.4442 14.5963 72.4557 14.5148 72.4628 14.4399L72.7729 13.0709ZM106.518 21.9927C103.698 21.9927 102.013 20.5945 102.013 18.2426C102.013 17.3183 102.113 16.3764 102.358 15.101L103.622 8.60115L104.4 4.55851L105.237 0.281859L110.403 0.0419922L109.549 4.55851H113.112L112.333 8.60115H108.771L107.665 14.1649C107.56 14.668 107.39 15.6158 107.39 16.2593C107.39 17.1194 107.776 17.5055 108.642 17.5055C109.092 17.5055 109.554 17.5055 109.987 17.4411L110.198 17.406L109.566 21.5774L109.484 21.6066C108.794 21.8757 107.501 21.9927 106.518 21.9927ZM19.0367 7.30756L12.9642 0.258443L1.56169 5.54722L0.894745 15.9259L9.90439 21.8173L20.7344 18.7343L33.2592 21.905L37.1732 13.9016L37.4189 2.29441L23.8927 0.135607L19.0367 7.30756ZM26.777 1.97852C26.7536 1.53388 26.1685 1.20041 25.4606 1.23551C24.7527 1.26476 24.197 1.65089 24.2204 2.09552C24.2379 2.54015 24.8288 2.87363 25.5308 2.83853C26.2387 2.80927 26.7945 2.42315 26.777 1.97852ZM24.0448 3.44696C24.7761 3.41185 25.3904 3.75703 25.4138 4.21921C25.4314 4.68139 24.8522 5.08507 24.1209 5.12017C23.3837 5.14943 22.7694 4.80425 22.7519 4.34207C22.7285 3.87989 23.3077 3.47621 24.0448 3.44696ZM24.0156 6.53597C23.9922 6.05038 23.3545 5.68766 22.5881 5.72276C21.8217 5.75786 21.2191 6.17909 21.2366 6.65883C21.26 7.13856 21.8977 7.50129 22.6641 7.47204C23.4305 7.43693 24.039 7.0157 24.0156 6.53597ZM22.202 10.1164C22.9099 10.5435 23.2784 11.2338 23.0269 11.6492C22.7695 12.0704 21.9913 12.0646 21.2893 11.6375C20.5814 11.2104 20.2128 10.5201 20.4644 10.1047C20.7218 9.68346 21.4999 9.68931 22.202 10.1164ZM30.4803 12.1114C31.2116 12.5501 31.586 13.2756 31.3169 13.7202C31.0478 14.1707 30.2346 14.1707 29.5033 13.7261C28.772 13.2873 28.3976 12.5618 28.6667 12.1172C28.9358 11.6726 29.749 11.6667 30.4803 12.1114ZM24.0799 17.6459C24.3257 17.2539 23.9746 16.5987 23.3077 16.195C22.6349 15.7913 21.8977 15.7855 21.6579 16.1833C21.418 16.5811 21.769 17.2305 22.436 17.6342C23.1088 18.0379 23.8401 18.0437 24.0799 17.6459ZM31.1531 18.2543C31.8493 18.6755 32.2062 19.3483 31.9605 19.7637C31.7089 20.1732 30.9483 20.1674 30.2521 19.7462C29.5618 19.3249 29.1991 18.6521 29.4448 18.2426C29.6963 17.8331 30.4627 17.8389 31.1531 18.2543ZM30.8664 7.32579C31.7206 7.31994 32.4168 7.73532 32.4226 8.25016C32.4226 8.76499 31.7323 9.19207 30.8781 9.19793C30.024 9.20378 29.3278 8.79425 29.3278 8.27941C29.3219 7.75872 30.0123 7.33749 30.8664 7.32579ZM33.8443 5.75202C33.8209 5.25473 33.1188 4.88616 32.2822 4.92126C31.4398 4.96221 30.7787 5.38929 30.8021 5.88658C30.8255 6.37801 31.5217 6.75244 32.3641 6.71149C33.2007 6.67638 33.8618 6.24345 33.8443 5.75202ZM33.6629 2.54598C34.4644 2.51088 35.1314 2.85605 35.1489 3.32408C35.1723 3.79212 34.5405 4.1958 33.739 4.2309C32.9375 4.266 32.2705 3.92083 32.2471 3.45279C32.2296 2.98476 32.8614 2.58108 33.6629 2.54598ZM34.2363 12.1933C34.365 11.3918 34.2948 10.7131 34.0725 10.678C33.8501 10.6371 33.5635 11.2572 33.4289 12.0587C33.3002 12.8602 33.3704 13.5389 33.5927 13.574C33.815 13.6149 34.1017 12.9948 34.2363 12.1933ZM35.5351 11.4445C35.7106 11.4796 35.7515 12.0763 35.6228 12.7901C35.4941 13.498 35.2484 14.0479 35.0729 14.0128C34.8974 13.9835 34.8564 13.381 34.9793 12.6731C35.108 11.9652 35.3537 11.4152 35.5351 11.4445ZM36.7987 6.91623C36.9275 6.10887 36.8924 5.43022 36.7168 5.40097C36.5355 5.37172 36.2839 6.00356 36.1552 6.81092C36.0206 7.61828 36.0557 8.29692 36.2371 8.32618C36.4126 8.35543 36.6642 7.72358 36.7987 6.91623ZM34.4937 16.7742C34.6575 16.8093 34.675 17.3709 34.5288 18.0261C34.3825 18.6814 34.131 19.1845 33.9671 19.1494C33.7975 19.1085 33.7799 18.5527 33.9262 17.8974C34.0725 17.2422 34.324 16.7391 34.4937 16.7742ZM36.7285 13.2405C36.8573 12.6028 36.8514 12.0646 36.7227 12.0412C36.5881 12.012 36.3775 12.5092 36.2488 13.1411C36.126 13.7788 36.126 14.317 36.2605 14.3404C36.3951 14.3697 36.6057 13.8724 36.7285 13.2405ZM9.89854 2.93796C10.466 2.40557 11.1798 2.24176 11.4957 2.58108C11.8116 2.91456 11.6127 3.62246 11.0452 4.15485C10.4777 4.68723 9.76398 4.84519 9.44805 4.50587C9.13213 4.1724 9.3369 3.47035 9.89854 2.93796ZM11.3904 5.6701C11.0511 5.30152 10.3081 5.43608 9.74058 5.97432C9.17309 6.50671 8.99172 7.23801 9.3369 7.60074C9.68207 7.96931 10.4192 7.8289 10.9867 7.29651C11.5542 6.76413 11.7356 6.03282 11.3904 5.6701ZM4.70337 5.62327C4.38159 5.31905 3.7322 5.48286 3.25831 5.986C2.77858 6.48913 2.64987 7.14438 2.97164 7.4486C3.29342 7.75282 3.94281 7.59486 4.4167 7.09173C4.89643 6.58274 5.02514 5.92749 4.70337 5.62327ZM2.98334 8.91124C3.48648 8.3847 4.15928 8.22089 4.4986 8.53681C4.83208 8.85858 4.70337 9.54308 4.20023 10.0696C3.69709 10.5962 3.0243 10.7658 2.68497 10.444C2.3515 10.1281 2.48021 9.44362 2.98334 8.91124ZM4.27629 11.579C3.93111 11.2572 3.25246 11.421 2.74933 11.9534C2.24619 12.48 2.11748 13.1703 2.45681 13.4921C2.79613 13.8139 3.48063 13.65 3.97791 13.1235C4.48105 12.5911 4.61561 11.9008 4.27629 11.579ZM12.2212 13.3985C12.9993 13.4687 13.6019 13.8548 13.5667 14.2702C13.5258 14.6797 12.8705 14.9605 12.0924 14.8903C11.3143 14.8201 10.7117 14.434 10.7468 14.0186C10.7819 13.6091 11.443 13.3283 12.2212 13.3985ZM5.8325 15.7503C6.5638 15.8206 7.13129 16.1774 7.09619 16.5402C7.05523 16.9029 6.42924 17.1369 5.69794 17.0608C4.96078 16.9906 4.39915 16.6338 4.43425 16.271C4.46935 15.9083 5.09534 15.6743 5.8325 15.7503ZM12.6541 17.2364C12.6892 16.8678 12.1158 16.5226 11.3787 16.4583C10.6474 16.3939 10.0214 16.6338 9.99214 16.9965C9.95704 17.3651 10.5304 17.7103 11.2675 17.7746C11.9988 17.839 12.6248 17.5991 12.6541 17.2364ZM11.8526 19.8398C11.8818 19.5063 11.3553 19.1904 10.6766 19.1319C9.998 19.0675 9.42465 19.2898 9.3954 19.6233C9.36615 19.9568 9.89269 20.2727 10.5713 20.3312C11.25 20.3956 11.8233 20.1732 11.8526 19.8398ZM18.3173 17.9091C18.329 17.5406 17.7381 17.2188 16.9892 17.1895C16.2462 17.1603 15.6319 17.4353 15.6144 17.8038C15.6027 18.1724 16.1936 18.4942 16.9424 18.5234C17.6854 18.5527 18.2997 18.2777 18.3173 17.9091ZM9.59431 9.15109C10.1735 8.607 10.9341 8.46659 11.2851 8.84102C11.6361 9.21545 11.4489 9.9643 10.8697 10.5084C10.2847 11.0525 9.52996 11.1929 9.17894 10.8185C8.82791 10.444 9.01512 9.70103 9.59431 9.15109ZM19.423 15.5514C19.6395 15.4754 19.6161 14.8611 19.3704 14.1824C19.1246 13.5038 18.7502 13.0123 18.5338 13.0943C18.3173 13.1703 18.3407 13.7846 18.5864 14.4632C18.8321 15.1419 19.2065 15.6333 19.423 15.5514ZM17.2116 9.233C17.4865 9.9175 17.5333 10.5493 17.311 10.6371C17.0945 10.7249 16.6909 10.2393 16.4159 9.54892C16.1351 8.86443 16.0883 8.23258 16.3106 8.14482C16.5271 8.05707 16.9307 8.54265 17.2116 9.233ZM15.1698 5.54139C15.3862 5.44194 15.3219 4.83934 15.0235 4.20165C14.7251 3.5581 14.3156 3.11932 14.0991 3.21878C13.8827 3.31823 13.9529 3.92083 14.2454 4.55852C14.5438 5.20207 14.9591 5.64085 15.1698 5.54139Z" fill="white"/>
</g>
<defs>
<clipPath id="clip0_4132_7241">
<rect width="112.316" height="22" fill="white" transform="translate(0.842102 0.000976562)"/>
</clipPath>
</defs>
</svg>

<svg width="114" height="22" fill="none" xmlns="http://www.w3.org/2000/svg"><g clip-path="url(#a)"><path fill-rule="evenodd" clip-rule="evenodd" d="m62.12.323-4.108 21.295h5.248L67.426.042l-5.307.28ZM42.28 14.75c0 4.58 2.703 7.213 7.413 7.213 1.117 0 3.967-.128 6.307-1.322l.093-.046-.374-3.891-.199.1c-1.445.702-2.96 1.047-4.628 1.047-1.41 0-2.48-.433-3.095-1.24-.274-.393-.444-1.007-.473-1.463h.017c.27.006.532.011.79.011 6.757 0 10.04-1.907 10.04-5.82 0-3.084-2.4-5.155-5.974-5.155-2.843 0-5.43 1.188-7.272 3.347-1.685 1.96-2.644 4.592-2.644 7.219Zm9.706-3.96c-.854.303-2.17.45-4.013.45h-.135c.416-1.597 1.703-3.148 3.739-3.148 1.024 0 1.661.492 1.661 1.281 0 .662-.398 1.106-1.252 1.416ZM92.87 21.963c-4.715 0-7.418-2.633-7.418-7.214 0-2.627.965-5.26 2.644-7.22 1.849-2.158 4.429-3.346 7.272-3.346 3.575 0 5.979 2.071 5.979 5.154 0 3.914-3.288 5.822-10.039 5.822-.263 0-.538-.006-.813-.012.035.456.199 1.07.48 1.462.614.808 1.684 1.24 3.089 1.24 1.667 0 3.182-.345 4.627-1.047l.2-.099.374 3.89-.094.047c-2.34 1.194-5.19 1.323-6.3 1.323ZM91.143 11.24c1.849 0 3.16-.147 4.014-.45.854-.31 1.252-.755 1.252-1.417 0-.79-.632-1.28-1.656-1.28-2.036 0-3.329 1.55-3.744 3.147h.134Zm-24.261 5.909c0 3.124 2.176 4.844 6.12 4.844 4.41 0 7.055-2.095 8.488-3.85 1.755-2.141 2.761-5.055 2.761-7.98 0-2.978-1.614-5.979-5.224-5.979-1.919 0-3.715.755-4.99 2.083L75.183.042l-5.289.28-2.632 13.743c-.187.913-.38 1.99-.38 3.084Zm5.89-4.078c.545-2.715 2.171-4.604 3.962-4.604 1.275 0 2.036 1.018 2.036 2.72 0 3.066-2.118 6.763-4.745 6.763-1.065 0-1.697-.62-1.726-1.702-.03-.521.041-.972.111-1.405l.022-.162c.012-.085.024-.166.03-.241l.31-1.37Zm33.746 8.922c-2.82 0-4.505-1.398-4.505-3.75 0-.925.1-1.867.345-3.142l1.264-6.5.778-4.042.837-4.277 5.166-.24-.854 4.517h3.563l-.779 4.042h-3.562l-1.106 5.564c-.105.503-.275 1.45-.275 2.094 0 .86.386 1.247 1.252 1.247.45 0 .912 0 1.345-.065l.211-.035-.632 4.171-.082.03c-.69.269-1.983.386-2.966.386ZM19.037 7.308 12.964.258 1.562 5.548.895 15.925l9.01 5.891 10.83-3.083 12.524 3.171 3.914-8.003.246-11.608L23.893.136l-4.856 7.172Zm7.74-5.33c-.023-.444-.608-.778-1.316-.742-.708.029-1.264.415-1.24.86.017.444.608.778 1.31.743.708-.03 1.264-.416 1.246-.86Zm-2.732 1.469c.731-.035 1.345.31 1.369.772.017.462-.562.866-1.293.901-.737.03-1.352-.316-1.37-.778-.023-.462.557-.866 1.294-.895Zm-.03 3.089c-.023-.486-.66-.848-1.427-.813-.766.035-1.369.456-1.351.936.023.48.66.842 1.427.813.766-.035 1.375-.456 1.352-.936Zm-1.813 3.58c.708.428 1.076 1.118.825 1.533-.258.421-1.036.416-1.738-.011-.708-.428-1.076-1.118-.825-1.533.258-.422 1.036-.416 1.738.011Zm8.278 1.995c.732.44 1.106 1.165.837 1.61-.27.45-1.082.45-1.814.005-.731-.439-1.105-1.164-.836-1.609.269-.444 1.082-.45 1.813-.006Zm-6.4 5.535c.246-.392-.105-1.047-.772-1.451-.673-.404-1.41-.41-1.65-.012-.24.398.111 1.047.778 1.451.673.404 1.404.41 1.644.012Zm7.073.608c.696.421 1.053 1.094.808 1.51-.252.41-1.013.403-1.709-.018-.69-.421-1.053-1.094-.807-1.503.251-.41 1.018-.404 1.708.011Zm-.287-10.928c.855-.006 1.55.41 1.557.924 0 .515-.69.942-1.545.948-.854.006-1.55-.404-1.55-.919-.006-.52.684-.942 1.538-.953Zm2.978-1.574c-.023-.497-.725-.866-1.562-.83-.842.04-1.503.467-1.48.965.024.491.72.865 1.562.824.837-.035 1.498-.468 1.48-.959Zm-.181-3.206c.801-.035 1.468.31 1.486.778.023.468-.608.872-1.41.907-.801.035-1.468-.31-1.492-.778-.017-.468.614-.872 1.416-.907Zm.573 9.647c.129-.801.059-1.48-.163-1.515-.223-.04-.51.58-.644 1.38-.129.802-.059 1.48.164 1.516.222.04.509-.58.643-1.38Zm1.3-.748c.175.035.215.631.087 1.345-.129.708-.375 1.258-.55 1.223-.176-.03-.217-.632-.094-1.34.129-.708.375-1.258.556-1.229Zm1.263-4.529c.129-.807.093-1.486-.082-1.515-.181-.03-.433.603-.562 1.41-.134.807-.1 1.486.082 1.515.176.03.427-.602.562-1.41Zm-2.305 9.858c.163.035.181.597.035 1.252-.147.655-.398 1.159-.562 1.123-.17-.04-.187-.596-.04-1.252.145-.655.397-1.158.567-1.123Zm2.234-3.534c.13-.637.123-1.175-.005-1.199-.135-.029-.346.468-.474 1.1-.123.638-.123 1.176.011 1.2.135.029.346-.469.468-1.1ZM9.898 2.939c.568-.532 1.282-.696 1.598-.357.316.334.117 1.041-.45 1.574-.568.532-1.282.69-1.598.35-.316-.333-.111-1.035.45-1.567ZM11.39 5.67c-.339-.368-1.082-.234-1.65.304-.567.533-.748 1.264-.403 1.627.345.368 1.082.228 1.65-.304.567-.533.749-1.264.403-1.627Zm-6.687-.047c-.321-.304-.97-.14-1.445.363-.48.503-.608 1.158-.286 1.463.321.304.97.146 1.445-.357.48-.51.608-1.165.286-1.469Zm-1.72 3.288c.503-.526 1.176-.69 1.516-.374.333.322.204 1.006-.299 1.533-.503.526-1.176.696-1.515.374-.333-.316-.205-1 .298-1.533Zm1.293 2.668c-.345-.322-1.024-.158-1.527.374-.503.527-.632 1.217-.292 1.54.34.32 1.024.157 1.52-.37.504-.532.639-1.222.3-1.544Zm7.945 1.82c.778.07 1.38.456 1.346.871-.041.41-.697.69-1.475.62-.778-.07-1.38-.456-1.345-.871.035-.41.696-.69 1.474-.62ZM5.832 15.75c.732.07 1.3.427 1.264.79-.04.363-.667.597-1.398.52-.737-.07-1.299-.426-1.264-.789.035-.363.661-.597 1.398-.52Zm6.822 1.486c.035-.368-.538-.713-1.275-.778-.732-.064-1.358.176-1.387.539-.035.368.538.713 1.275.778.732.064 1.358-.176 1.387-.539Zm-.801 2.604c.029-.334-.498-.65-1.176-.708-.679-.065-1.252.158-1.282.491-.029.334.498.65 1.176.708.679.065 1.252-.158 1.282-.491Zm6.464-1.93c.012-.37-.579-.691-1.328-.72-.743-.03-1.357.245-1.375.614-.011.368.58.69 1.328.72.743.029 1.358-.246 1.375-.615ZM9.594 9.15c.58-.544 1.34-.684 1.691-.31.351.374.164 1.123-.415 1.667-.585.545-1.34.685-1.691.31-.351-.374-.164-1.117.415-1.667Zm9.829 6.4c.217-.076.193-.69-.053-1.369-.245-.678-.62-1.17-.836-1.088-.217.076-.193.69.052 1.37.246.678.62 1.17.837 1.087Zm-2.211-6.318c.274.684.321 1.316.099 1.404-.216.088-.62-.398-.895-1.088-.28-.685-.328-1.316-.105-1.404.216-.088.62.398.9 1.088ZM15.17 5.541c.216-.1.152-.702-.146-1.34-.299-.643-.708-1.082-.925-.982-.216.1-.146.702.146 1.34.299.643.714 1.082.925.982Z" fill="#fff"/></g><defs><clipPath id="a"><path fill="#fff" transform="translate(.842 .001)" d="M0 0h112.316v22H0z"/></clipPath></defs></svg>
